X:1
T:Kiss The Rain
T:Kiss The Rain(G-A)
T:Yiruma
T:Transcribed by Shigeo Ida
C:Yiruma
Z:Arranged by Shigeo Ida
%%score { ( 1 3 ) | ( 2 4 ) }
L:1/8
M:4/4
K:G
V:1 treble nm="Piano" snm="Pno."
V:3 treble 
V:2 treble 
V:4 treble 
V:1
 z6[Q:1/4=63]!p! z/"C" !1!d/g/a/ |"G" ab b4 z/ !2!g/a/b/ | %2
"Bm" !3!ad' [fd']4 z/!8va(! !2!d'/e'/f'/ |"Em" [gd'f']g' [bg']2- [bg']a'{/a'} (3b'a'g'!8va)! | %4
"Bm/D"!8va(! f'4 z g'f'd' |"C" [fd']e' [ge']4 z d'/c'/ |"G/B" c'd' d'4!8va)! z !3!g/a/ | %7
"Am" !5!b!4!c' c'4 (d'c') |"C/D" [ceb]4 adga | [da]"G"b [db]4 z/!8va(! !2!g/a/b/ | %10
"Bm" [da]d' [dfd']4 z/ !3!d'/!4!e'/f'/ |"Em" [gbf']g' [gg']2- [gg']a'{/!4!a'} (3!5!b'a'g'!8va)! | %12
"Bm/D"!8va(! [bf']4 z g'f'd' |"C" [ed']e' [ge']4 z d'/c'/ |"G/B" [dac']d' [dd']4 z !3!g/a/ | %15
"Am" !>!!5![ceb] !4!c'2 e"D" g2 f2!8va)! |"Gsus4" !5!!2![cg]4 z"G"!mf! GBd | %17
"D/C" !5!!2![Ge]2 E2 GFGe |"Bm" !5!!3!d4 z z z z |"Am" dccB BAAG |"G" [FA]B B2 z GBd | %21
"A/C#" !5!!2!e4"F#" z ffe |"Bm" d3 B/c/"E" d2 cB |"Am" [Ec]2 d2 !3!e>f- fg | %24
"D"!>(! [ceb]4 [cea]!8va(!dga!>)! |"G" [da]b [db]4 z/ g/a/b/ | %26
"D/F#" [da]d' [dfd']4 [dfd']e'/f'/!8va)! | %27
"Em"!8va(! [gbf']g' [gg']2- [gg'][aa'] (3[bb'][aa'][gg'] |"Bm/D" [fbf']4 z [gg'][ff'][dd'] | %29
"C" [dd'][ee'] [ee']4- [ee'](d'/c'/)!8va)! |"G/B"!8va(! [dac']d' [dd']4 [dd']!2!g/a/ | %31
"Am" [eb]c' [ec']4 [dd'][cc'] |"D" [ceb]4 [cea]dga!8va)! |"G"!8va(! [da]b [db]4 z/ g/a/b/ | %34
"Bm" [da]d' [dfd']4 z/ [dd']/[ee']/[ff']/ | %35
"Em" [fbf'][gg'] [gg']2- [gg'][aa'] (3[bb'][aa'][gg']!8va)! | %36
"Bm/D"!8va(! [fbf']4 z [gg'][ff'][dd'] |"C" [dd'][ee'] [ee']4 z d'/c'/ | %38
"G/B" [dac']d' [dd']4- [dd']!8va)!(g/a/) |"Am" b c'2 e g2"D" f2 |"G"!mp! [cg]4 [AB]GBd | %41
"C" !2!!5![Ge]2 E2"D/C" GFGe |"Bm" d4 z z z z |"Am" dccB"D" BAAG |"G" AB B2- BGBd | %45
"A/C#" !5!!2!e4"F#" z ffe |"Bm" [Fd]2- [Fd]B/c/"E" d2 cB |"Am" c2 d2!<(! [Ee]>[Ff]- [Ff][Gg]!<)! | %48
"D"!mf! [Bdb]4 [Ada]dga |"G" [da]b [db]4 [db]/!8va(!g/a/b/ |"D/F#" [da]d' [dd']4 [dd']/d'/e'/f'/ | %51
"Em" [bf'][gg'] [gg']2- [gg'][aa'] (3[bb'][aa'][gg']!8va)! | %52
"Bm/D"!8va(! [fbf']4 z [gg'][ff'][dd']!8va)! |"C" [dd'][ee'] [ee']4 z/ D/d/c/ | %54
"G/B" [DAc]d [DGd]4 [DGd](g/a/) |"Am" [ceb] c'2!<(! e"D" [cg]2 [cf]2!<)! || %56
[K:A]"D/E" !tenuto![Adfa]2 z2[Q:1/4=63] z e!tenuto!a!tenuto!b | b"A"c' c'4 c'/(a/b/)c'/ | %58
"C#m" be' e'4 z/!8va(! !3!e'/!4!f'/!5!g'/ | %59
"F#m" !5!g'!5!a' !5!a'2- [c'a']!5!b'{/!4!b'} (3!5!c''b'a'!8va)! |"A/E" !2!!1!g'4 z (ag)e | %61
"D" !4!!1![Ae]f [Af]4 Ae/d/ |"A/C#" de e2 A2- A/E/A/B/ |"Bm" c d2 !2!F"E" A2 G2 |"A" !5!!2!A6 bc' | %65
"Bm" !4!c' d'2 !2!f"D/E" a2 g2 |[M:3/4]"A"!>(! [da]6!>)! |[M:4/4] [CA]8 |] %68
V:2
 z6 z2 | G,DAD G4 | (B,F)BF d4 | E!mp!BfB g2 b2 | DBdB d4 | CGdG c4 | B,GBG B4 | A,EAE G4 | %8
[K:bass] D,A,FA, F4 |[K:bass] G,,D,B,D, A,D,G,G,, | B,,F,DF, B,F,DF, | E,,B,,G,B,, F,B,,E,B,, | %12
 (D,,B,,)F,B,, D,4 | C,G,CG, EG,CG, | (B,,G,D)G, B,G, D2 | (A,,E,) G,2 (D,A, D2) | %16
 A,D[I:staff -1]!2!!1!Ac !3!B2[I:staff +1] z2 | C,G,DG, CG,DC, | B,,G,B,G, B,2 B,B,, | %19
 ([A,,G,]E,G,)!3!A,, D,,A,,G,D, | G,,D,A,D, G,D,A,!3!G,, | %21
 ^C,,!1!^C,!1!G,!3!^C, !5!F,,!3!^C,^A,C, | B,,F, D2 (E,B, E2) | A,,E,A,!3!E, !1!C!4!E,!2!G,!1!A, | %24
 D,,A,,D,A,,!mp! F,4 | G,,D,B,D, A,D,G,D, | F,,F,DF, B,F,DF, | E,,!3!B,,G,!3!B,, E,,B,,G,B,, | %28
 D,,B,,!2!D!4!B, DB,!1!D!3!D, | C,,G,DG, CG,DG, | B,,G,B,G, DG,B,G, | A,,E,G,E, CE,G,A, | %32
 D,,A,,CE, (DF,)(FD) | G,,D,B,D, A,D,G,D, | B,,F,DF, B,F,DF, | E,,!3!B,,G,!3!B,, E,,B,,G,B,, | %36
 D,,B,,DB, DB,!1!D!3!D, | C,,G,,!1!DG, [CE]G,DG, | B,,G,B,G, DG,B,G, | (A,,E, G,2) (D,A,) D2 | %40
 ([G,,A,]D,A,C B,4) | C,G,DG, CG,DC, | B,,G,B,G, B,2 B,B,, | A,,E,CE, D,,A,, G,2 | %44
 G,,D,A,D, [G,B,]D,B,D, | ^C,,^C,!1!G,!4!^C, F,,^C,^A,^C, | B,,F, D2 (E,B, E2) | %47
 A,,E,A,!3!E, !1!C!4!E,!2!G,!1!A, | D,,A,,G,G FA,(FD) | G,,D,B,D, A,D,G,G,, | F,,F,DF, B,F,DF, | %51
 E,,B,,G,B,, F,B,,E,B,, | D,,B,,!1!D!3!B, !1!D!2!!1!!3!B,D!3!D, | C,,G,,!1!D!3!G, [CE]G,D!mp!G, | %54
 B,,G,B,G, DG,B,G, | A,,E,G,A,, (D,,A,,)F,A,, ||[K:A] E,,E, A,2 [E,G,B,]4 | %57
[K:treble] !5!A,!2!E!1!B!3!E !2!AE c2 | z G2 G c G3 |[K:bass] F,CAC GCFC |[K:bass] E,CEC ECEE, | %61
 D,,A,,EA, [DF]A,ED, | C,,A,,EA, CA, C2 | (A,F, A,2) (E,,B,,) E,2 | z E,3 E,4 | %65
[K:treble] ([B,A]F) A2 [EB]4 |[M:3/4][K:bass] A,,E, B,E- E2 |[M:4/4]!pp! [A,,,A,,]8 |] %68
V:3
 x8 | x8 | x13/2!8va(! x3/2 | x8!8va)! |!8va(! b2 f2 !1!b4 | x8 | [da]2 (a2 g2)!8va)! z2 | c6 z2 | %8
 x8 | x13/2!8va(! x3/2 | x8 | x6 b2!8va)! |!8va(! x8 | x8 | x8 | x4 c4!8va)! | x8 | x8 | %18
 ADGF GDGd | E4 [CE]2 [CE]2 | A,2 (D2 B,2) x2 | GB,EG !1!F2 ^A2 | F4 (A ^G3) | x8 | x5!8va(! x3 | %25
 x8 | x8!8va)! |!8va(! x8 | x2 !1!B2 F2 x2 | x8!8va)! |!8va(! x8 | x8 | x8!8va)! |!8va(! x8 | x8 | %35
 x8!8va)! |!8va(! x2 (!1!B2 F2) x2 | x8 | x7!8va)! x | [ce]4 c4 | x8 | x8 | ADGF GDGd | %43
 E4 [CE]2 [CE]2 | D2 D4 x2 | GB,EG !1!F2 ^A2 | x4 A ^G3 | E4 x4 | x8 | x13/2!8va(! x3/2 | x8 | %51
 x8!8va)! |!8va(! x2 (!1!B2 F2) x2!8va)! | x8 | x8 | x8 ||[K:A] x2 F[DA] [DG]4 | e4 c2 z2 | %58
 e2 e4 z2!8va(! | [bc']2 !1!c'2- x4!8va)! | c'2 (!1!G2 !1!c4) | x8 | G2 A2 F2 x2 | D4 D4 | %64
 C2 B,D C4 | !1!d4 d4 |[M:3/4] x6 |[M:4/4] x8 |] %68
V:4
 x8 | x8 | x8 | x8 | x8 | x8 | x8 | x8 |[K:bass] x8 |[K:bass] x8 | x8 | x8 | x8 | x8 | x8 | x8 | %16
 G,,6 x2 | x8 | x8 | x8 | x8 | x8 | x8 | x8 | x8 | x8 | x8 | x8 | x8 | x8 | x8 | x8 | x8 | x8 | %34
 x8 | x8 | x8 | x8 | x8 | x8 | x8 | x8 | x8 | x8 | x8 | x8 | x8 | x8 | x8 | x8 | x8 | x8 | x8 | %53
 x8 | x8 | x8 ||[K:A] x8 |[K:treble] x8 | C8 |[K:bass] x8 |[K:bass] x8 | x8 | x8 | B,,4 x4 | %64
 A,,4 A,,4 |[K:treble] x8 |[M:3/4][K:bass] x6 |[M:4/4] x8 |] %68

